en/_assets/api-gateway/spec-constructor/dummy.svg

<?xml version="1.0" encoding="UTF-8"?>
<svg xmlns="http://www.w3.org/2000/svg" xmlns:xlink="http://www.w3.org/1999/xlink" width="16px" height="16px" viewBox="0 0 16 16" version="1.1">
<g id="surface1">
<path style="fill:none;stroke-width:2;stroke-linecap:round;stroke-linejoin:round;stroke:rgb(32.156863%,50.980392%,100%);stroke-opacity:1;stroke-miterlimit:4;" d="M 18 2 L 18 8 C 18 9.65625 19.34375 11 21 11 L 27 11 M 18 2 C 18.640625 2 19.257812 2.257812 19.710938 2.710938 L 26.289062 9.289062 C 26.742188 9.742188 27 10.359375 27 11 M 18 2 L 8 2 C 6.34375 2 5 3.34375 5 5 L 5 27 C 5 28.65625 6.34375 30 8 30 L 24 30 C 25.65625 30 27 28.65625 27 27 L 27 11 " transform="matrix(0.5,0,0,0.5,0,0)"/>
</g>
</svg>

<svg xmlns="http://www.w3.org/2000/svg" width="16" height="16" viewBox="0 0 16 16">
    <path d="M18 2v6a3 3 0 0 0 3 3h6m-9-9c.64 0 1.258.258 1.71.71l6.58 6.58c.452.452.71 1.07.71 1.71m-9-9H8a3 3 0 0 0-3 3v22a3 3 0 0 0 3 3h16a3 3 0 0 0 3-3V11" style="fill:none;stroke-width:2;stroke-linecap:round;stroke-linejoin:round;stroke:#5282ff;stroke-opacity:1;stroke-miterlimit:4" transform="scale(.5)"/>
</svg>
